icons/1_Primary/Cobo.svg

<svg xmlns="http://www.w3.org/2000/svg" width="1024" height="1024" fill="none">
   <g clip-path="url(#a)">
      <path fill="#ABABFF" d="M512 1024c282.77 0 512-229.23 512-512S794.77 0 512 0 0 229.23 0 512s229.23 512 512 512Z"/>
      <path fill="#fff" d="M506.9 511.8c.1 32.4-22.9 60.2-54.7 66.2-31.8 6-63.4-11.5-75.1-41.6l25.6-25.7v1.1c0 17.6 12.4 32.8 29.7 36.2 17.3 3.4 34.6-5.8 41.3-22.1 6.7-16.3 1.1-35.1-13.6-44.9-14.7-9.8-34.2-7.9-46.6 4.6l-73.7 73.7c-19.2 19.3-48.2 25-73.3 14.6-25.1-10.4-41.5-34.9-41.5-62.2 0-27.3 16.4-51.7 41.5-62.2s54.1-4.6 73.3 14.6c3.8 3.8 5.3 9.4 3.8 14.6-1.4 5.2-5.5 9.3-10.8 10.6-5.2 1.4-10.8-.2-14.6-4-14.5-14.4-37.9-14.4-52.3.1-14.4 14.4-14.4 37.9 0 52.3 14.4 14.4 37.8 14.5 52.3.1l73.8-73.4c19.2-19.3 48.1-25 73.3-14.6 25.1 10.4 41.5 34.9 41.5 62.1v-.1h.1Zm292.1 0c0 32.3-23 60.1-54.8 66.1-31.8 6-63.3-11.4-75.1-41.5l25.6-25.7v1.1c0 17.6 12.4 32.8 29.7 36.2 17.3 3.4 34.6-5.8 41.3-22.1 6.7-16.3 1.1-35.1-13.6-44.9-14.7-9.8-34.2-7.9-46.6 4.6L632.1 559c-19.2 19.5-48.2 25.4-73.4 15-25.3-10.4-41.7-35-41.7-62.3v-94.4c-.4-5.6 2.4-11 7.3-13.9 4.9-2.9 10.9-2.9 15.7 0 4.8 2.9 7.6 8.3 7.3 13.9v38.3c18.6-12.3 42.1-14.5 62.7-6s35.6 26.7 40.2 48.6l34-34c19.2-19.2 48.2-25 73.3-14.6 25.1 10.5 41.5 35 41.5 62.2Zm-177.7 0c0-20.4-16.6-37-37-37s-37 16.6-37 37 16.6 37 37 37c9.8 0 19.2-3.9 26.2-10.8 6.9-6.9 10.8-16.3 10.8-26.2Z"/>
   </g>
   <defs>
      <clipPath id="a">
         <path fill="#fff" d="M0 0h1024v1024H0z"/>
      </clipPath>
   </defs>
</svg>

<svg width="1024" height="1024" viewBox="0 0 1024 1024" fill="none" xmlns="http://www.w3.org/2000/svg">
<g clip-path="url(#clip0_2_1827)">
<path d="M512 1024C794.77 1024 1024 794.77 1024 512C1024 229.23 794.77 0 512 0C229.23 0 0 229.23 0 512C0 794.77 229.23 1024 512 1024Z" fill="#ABABFF"/>
<path d="M506.9 511.8C507 544.2 484 572 452.2 578C420.4 584 388.8 566.5 377.1 536.4L402.7 510.7V511.8C402.7 529.4 415.1 544.6 432.4 548C449.7 551.4 467 542.2 473.7 525.9C480.4 509.6 474.8 490.8 460.1 481C445.4 471.2 425.9 473.1 413.5 485.6L339.8 559.3C320.6 578.6 291.6 584.3 266.5 573.9C241.4 563.5 225 539 225 511.7C225 484.4 241.4 460 266.5 449.5C291.6 439 320.6 444.9 339.8 464.1C343.6 467.9 345.1 473.5 343.6 478.7C342.2 483.9 338.1 488 332.8 489.3C327.6 490.7 322 489.1 318.2 485.3C303.7 470.9 280.3 470.9 265.9 485.4C251.5 499.8 251.5 523.3 265.9 537.7C280.3 552.1 303.7 552.2 318.2 537.8L392 464.4C411.2 445.1 440.1 439.4 465.3 449.8C490.4 460.2 506.8 484.7 506.8 511.9V511.8H506.9ZM799 511.8C799 544.1 776 571.9 744.2 577.9C712.4 583.9 680.9 566.5 669.1 536.4L694.7 510.7V511.8C694.7 529.4 707.1 544.6 724.4 548C741.7 551.4 759 542.2 765.7 525.9C772.4 509.6 766.8 490.8 752.1 481C737.4 471.2 717.9 473.1 705.5 485.6L632.1 559C612.9 578.5 583.9 584.4 558.7 574C533.4 563.6 517 539 517 511.7V417.3C516.6 411.7 519.4 406.3 524.3 403.4C529.2 400.5 535.2 400.5 540 403.4C544.8 406.3 547.6 411.7 547.3 417.3V455.6C565.9 443.3 589.4 441.1 610 449.6C630.6 458.1 645.6 476.3 650.2 498.2L684.2 464.2C703.4 445 732.4 439.2 757.5 449.6C782.6 460.1 799 484.6 799 511.8ZM621.3 511.8C621.3 491.4 604.7 474.8 584.3 474.8C563.9 474.8 547.3 491.4 547.3 511.8C547.3 532.2 563.9 548.8 584.3 548.8C594.1 548.8 603.5 544.9 610.5 538C617.4 531.1 621.3 521.7 621.3 511.8Z" fill="white"/>
</g>
<defs>
<clipPath id="clip0_2_1827">
<rect width="1024" height="1024" fill="white"/>
</clipPath>
</defs>
</svg>
